assets/ui/new-tab.svg

<svg width="39" height="39" viewBox="0 0 39 39" fill="none" xmlns="http://www.w3.org/2000/svg">
<path d="M33.7746 3.88726C33.7262 3.88879 33.6778 3.89303 33.6299 3.89996H26C25.8277 3.89752 25.6567 3.92935 25.4968 3.99358C25.337 4.05782 25.1915 4.15319 25.0688 4.27415C24.9461 4.39511 24.8487 4.53924 24.7822 4.69817C24.7157 4.85711 24.6815 5.02767 24.6815 5.19996C24.6815 5.37224 24.7157 5.5428 24.7822 5.70174C24.8487 5.86067 24.9461 6.00481 25.0688 6.12576C25.1915 6.24672 25.337 6.34209 25.4968 6.40633C25.6567 6.47057 25.8277 6.50239 26 6.49996H30.6617L17.2809 19.8808C17.1561 20.0006 17.0565 20.1441 16.9879 20.3029C16.9192 20.4616 16.883 20.6325 16.8812 20.8054C16.8795 20.9784 16.9122 21.15 16.9776 21.3101C17.043 21.4702 17.1397 21.6157 17.262 21.738C17.3843 21.8603 17.5297 21.957 17.6899 22.0223C17.85 22.0877 18.0216 22.1205 18.1945 22.1187C18.3675 22.117 18.5383 22.0807 18.6971 22.0121C18.8559 21.9435 18.9993 21.8439 19.1191 21.7191L32.5 8.33824V13C32.4976 13.1722 32.5294 13.3433 32.5936 13.5031C32.6579 13.663 32.7532 13.8085 32.8742 13.9311C32.9951 14.0538 33.1393 14.1512 33.2982 14.2177C33.4571 14.2842 33.6277 14.3185 33.8 14.3185C33.9723 14.3185 34.1428 14.2842 34.3018 14.2177C34.4607 14.1512 34.6048 14.0538 34.7258 13.9311C34.8468 13.8085 34.9421 13.663 35.0064 13.5031C35.0706 13.3433 35.1024 13.1722 35.1 13V5.36499C35.1259 5.17783 35.1107 4.98727 35.0554 4.80658C35.0001 4.62589 34.9062 4.45942 34.78 4.31876C34.6538 4.1781 34.4985 4.06663 34.3249 3.99211C34.1513 3.91759 33.9635 3.88181 33.7746 3.88726ZM7.8 9.09996C6.37902 9.09996 5.2 10.279 5.2 11.7V31.2C5.2 32.6209 6.37902 33.8 7.8 33.8H27.3C28.721 33.8 29.9 32.6209 29.9 31.2V18.2V14.8484L27.3 17.4484V20.8V31.2H7.8V11.7H18.2H20.8H21.5516L24.1516 9.09996H20.8H18.2H7.8Z" fill="#C0C0C0"/>
</svg>

<svg width="39" height="39" fill="none" xmlns="http://www.w3.org/2000/svg"><path d="m33.77 3.89-.14.01H26a1.3 1.3 0 1 0 0 2.6h4.66L17.28 19.88a1.3 1.3 0 1 0 1.84 1.84L32.5 8.34V13a1.3 1.3 0 1 0 2.6 0V5.36a1.3 1.3 0 0 0-1.33-1.47ZM7.8 9.1a2.62 2.62 0 0 0-2.6 2.6v19.5c0 1.42 1.18 2.6 2.6 2.6h19.5c1.42 0 2.6-1.18 2.6-2.6V14.85l-2.6 2.6V31.2H7.8V11.7h13.75l2.6-2.6H7.8Z" fill="silver"/></svg>
